!!!OTL@@FUR: E jo cjanti...
!!!OTL@IT: E io canto, canto, canto
!!!OTL@EN: I sing, sing, sing
**kern
*clefG2
*k[f#c#]
*D:
*M6/8
*MM60
*>[A,A]
*>A
8f#
8g
=1
4a
8a
4a
8cc#
=2
8b
4a
8r
8f#
8g
=3
4a
8a
4b
8dd
=4
4.cc#
8r
8g
8a
=5
4b
8b
4cc#
8cc#
=6
4dd
8dd
4dd
8dd
=7
4b
8ee
8cc#
8b
8cc#
=8
[4.dd
8dd]
==:|!
*-
!!!ARE: Friuli
!!!ENC: Kelly Leistikow
!!!END: 2002/03/07
!!!ref: @{OTL@@FUR}/@{OTL@EN}
